X:39
T:Rolandskvadet
O:norway
C:anon.
Z:Transcribed by Frank Nordberg - http://www.musicaviva.com
M:C
L:1/4
K:Dm
"Dm"AA/A/AA|"Gm"GFDD/C/|"Dm"DD/D/F"C"G|"F"A2AA|
w:Seks mi-ne svei-nar hei-me ve-ra og gj\oy-me det gul-let bal-de. Dei
"Dm"AAFG|"Gm"GDDD|"Dm"FF/F/"C"EC|"Dm"D2D2||
w:and-re seks p\aa heid-nings-lan-do gj\oy-me dei jar-ni kal-de.
"Dm"FF/F/AA|"Gm"GFFD|"Dm"DDF"C"G|"F"A2A2|
